icon-themes/colibre_svg/vcl/res/link_file.svg

<svg viewBox="0 0 256 256" xmlns="http://www.w3.org/2000/svg"><path d="m12 12v104h56v64l24-24 27.59375 51.71875c3.36747 5.37539 11.72315 5.33031 16.78125 1.26563 4.41006-4.12147 3.0781-12.14063.39064-16.42188l-27.45314-44.5625h38.6875l-56-50.406248v-68.109377l-18.578125-17.484375zm160 160v72h72v-72z" fill="#fff"/><path d="m4 4v120h56v75.3125l30.015624-30.01563 22.656246 42.43751c3.32813 6.86805 19.99371 9.72793 27.35938 4.17187 7.40028-5.58218 7.88085-20.61484 3.51562-27.57812l-19.90625-32.32813h45.20313l-68.84375-61.968752v-58.031248-8l-24-24h-8zm8 8h56v24h24v50.828128l-20.921875-18.828128h-11.078125v48h-48zm64 2.421875 14.421872 13.578125h-14.421872zm-8 61.578125 24 21.593752 8 7.203118 48 43.20313h-38.6875l27.45312 44.5625c2.68749 4.28126 3.23441 12.7798-.39064 16.42188-4.96222 4.01675-13.41377 4.10976-16.78124-1.26563l-27.59374-51.71875-24 24zm96 88v88h88v-88zm8 8h72v72h-72zm24 8 10.34375 10.34375-13.625 13.65625c-9.24541 10.20061-4.71875 22.40738 3.28125 32h8v-8l-4.85938-7.82813 18.51563-18.51562 10.34375 10.34375v-32z"/></svg>

<svg xmlns="http://www.w3.org/2000/svg" viewBox="0 0 256 256">
  <path
     style="fill:#ffffff"
     d="m 12,12 v 104 h 56 v 64 l 24,-24 27.59375,51.71875 c 3.36747,5.37539 11.72315,5.33031 16.78125,1.26563 4.41006,-4.12147 3.0781,-12.14063 0.39064,-16.42188 L 109.3125,148 H 148 L 92,97.593752 V 29.484375 L 73.421875,12 Z m 160,160 v 72 h 72 v -72 z"
     />
  <path
     style="fill:#000000"
     d="m 4,4 v 120 h 56 v 75.3125 l 30.015624,-30.01563 22.656246,42.43751 c 3.32813,6.86805 19.99371,9.72793 27.35938,4.17187 7.40028,-5.58218 7.88085,-20.61484 3.51562,-27.57812 L 123.64062,156 h 45.20313 L 100,94.031248 V 36 28 L 76,4 h -8 z m 8,8 H 68 V 36 H 92 V 86.828128 L 71.078125,68 H 60 v 48 H 12 Z M 76,14.421875 90.421872,28 H 76 Z M 68,76 92,97.593752 100,104.79687 148,148 h -38.6875 l 27.45312,44.5625 c 2.68749,4.28126 3.23441,12.7798 -0.39064,16.42188 -4.96222,4.01675 -13.41377,4.10976 -16.78124,-1.26563 L 92,156 68,180 Z m 96,88 v 88 h 88 v -88 z m 8,8 h 72 v 72 h -72 z m 24,8 10.34375,10.34375 L 192.71875,204 C 183.47334,214.20061 188,226.40738 196,236 h 8 v -8 l -4.85938,-7.82813 18.51563,-18.51562 L 228,212 v -32 z"
     />
</svg>
